X: 3
T:Muiñeira do Carballal
M:6/8
L:1/8
Q:200
C:Trad
S:Rep. "Os Gaiteiros do Carballal"
R:Muiñeira
B:Os Segredos da Gaita. FOXO
K:C
GAG |: C3 {c}DEF | G3 {B}GAG | FEF  GAG |
{EF} EDC GAG | C3 {B}DEF | G3 {B}GAG |
FEF GAG |1 C3 GAG :|2 C3 {B} CDE | CDE DEF |
{DE}D2 C {A}CDE | DEF GAG | D2{ED} C {A}CDE | CDE DEF |
{DE} D2 C {A}CDE | DEF GAG |1 C3 {A}CDE :|2 C3 ||

